X: 33390
T: Quendale Bay
R: reel
M: 4/4
K: Gmajor
B,A,|G,2 G,2 D3 E/F/|G2 G2 g3 f/g/|e3 f/g/ d2 GA/B/|c2 E2 D2 B,A,|
G,2 G,2 D3 E/F/|G2 G2 g2 fg|e2 B3/2c/ d2 B2|G6:|
GA|B2 B2 D3 E/F/|G2 G2 B,3 C/D/|E3 D/C/ D2 B,2|A,6 GA|
B2 B2 D3 E/F/|G2 G2 g2 fg|e2 Bc d2 B2|G6 GA|
B3/2A/ B/d3/2 D3 E/F/|G3/2F/ G/B3/2 B,3 C/D/|E3 D/C/ D2 B,2|A,6 B,A,|
G,3 G D3 E/F/|G2 G2 g3 f/g/|e2 B3/2c/ d2 B2|G6||

